icons/svg/poi/hazard_slippery_road.svg

<?xml version="1.0" encoding="UTF-8" standalone="no"?>
<!-- Created with Inkscape (http://www.inkscape.org/) -->

<svg
   xmlns:dc="http://purl.org/dc/elements/1.1/"
   xmlns:cc="http://creativecommons.org/ns#"
   xmlns:rdf="http://www.w3.org/1999/02/22-rdf-syntax-ns#"
   xmlns:svg="http://www.w3.org/2000/svg"
   xmlns="http://www.w3.org/2000/svg"
   xmlns:sodipodi="http://sodipodi.sourceforge.net/DTD/sodipodi-0.dtd"
   xmlns:inkscape="http://www.inkscape.org/namespaces/inkscape"
   version="1.0"
   width="580"
   height="580"
   id="svg2"
   sodipodi:version="0.32"
   inkscape:version="0.91 r13725"
   sodipodi:docname="hazard_slippery_road.svg"
   inkscape:output_extension="org.inkscape.output.svg.inkscape">
  <metadata
     id="metadata10">
    <rdf:RDF>
      <cc:Work
         rdf:about="">
        <dc:format>image/svg+xml</dc:format>
        <dc:type
           rdf:resource="http://purl.org/dc/dcmitype/StillImage" />
        <cc:license
           rdf:resource="http://web.resource.org/cc/PublicDomain" />
        <dc:language>en</dc:language>
        <dc:title></dc:title>
      </cc:Work>
    </rdf:RDF>
  </metadata>
  <sodipodi:namedview
     inkscape:window-height="1051"
     inkscape:window-width="1920"
     inkscape:pageshadow="2"
     inkscape:pageopacity="0.0"
     guidetolerance="10.0"
     gridtolerance="10.0"
     objecttolerance="10.0"
     borderopacity="1.0"
     bordercolor="#666666"
     pagecolor="#ffffff"
     id="base"
     showgrid="false"
     inkscape:zoom="0.70710678"
     inkscape:cx="72.134555"
     inkscape:cy="321.16401"
     inkscape:window-x="0"
     inkscape:window-y="0"
     inkscape:current-layer="svg2"
     showguides="true"
     inkscape:guide-bbox="true"
     inkscape:window-maximized="1" />
  <defs
     id="defs4">
    <inkscape:perspective
       sodipodi:type="inkscape:persp3d"
       inkscape:vp_x="0 : 290 : 1"
       inkscape:vp_y="0 : 1000 : 0"
       inkscape:vp_z="580 : 290 : 1"
       inkscape:persp3d-origin="290 : 193.33333 : 1"
       id="perspective12" />
    <style
       type="text/css"
       id="style6">
   
    .fil0 {fill:#EF7900}
   
  </style>
    <inkscape:perspective
       id="perspective6807"
       inkscape:persp3d-origin="29.116032 : 19.410688 : 1"
       inkscape:vp_z="58.232063 : 29.116032 : 1"
       inkscape:vp_y="0 : 1000 : 0"
       inkscape:vp_x="0 : 29.116032 : 1"
       sodipodi:type="inkscape:persp3d" />
    <inkscape:perspective
       id="perspective6954"
       inkscape:persp3d-origin="290 : 193.33333 : 1"
       inkscape:vp_z="580 : 290 : 1"
       inkscape:vp_y="0 : 1000 : 0"
       inkscape:vp_x="0 : 290 : 1"
       sodipodi:type="inkscape:persp3d" />
    <inkscape:perspective
       id="perspective2541"
       inkscape:persp3d-origin="240 : 160 : 1"
       inkscape:vp_z="480 : 240 : 1"
       inkscape:vp_y="0 : 1000 : 0"
       inkscape:vp_x="0 : 240 : 1"
       sodipodi:type="inkscape:persp3d" />
    <inkscape:perspective
       id="perspective2750"
       inkscape:persp3d-origin="215 : 143.33333 : 1"
       inkscape:vp_z="430 : 215 : 1"
       inkscape:vp_y="0 : 1000 : 0"
       inkscape:vp_x="0 : 215 : 1"
       sodipodi:type="inkscape:persp3d" />
    <inkscape:perspective
       id="perspective2830"
       inkscape:persp3d-origin="0.5 : 0.33333333 : 1"
       inkscape:vp_z="1 : 0.5 : 1"
       inkscape:vp_y="0 : 1000 : 0"
       inkscape:vp_x="0 : 0.5 : 1"
       sodipodi:type="inkscape:persp3d" />
  </defs>
  <g
     id="g1327">
    <path
       d="M 66.275,1.768 C 24.94,1.768 1.704,23.139 1.704,66.804 L 1.704,516.927 C 1.704,557.771 22.598,579.156 63.896,579.156 L 515.92,579.156 C 557.227,579.156 578.149,558.84 578.149,516.927 L 578.149,66.804 C 578.149,24.203 557.227,1.768 514.627,1.768 C 514.624,1.768 66.133,1.625 66.275,1.768 z"
       style="fill:#111111;stroke:#eeeeee;stroke-width:3.40799999"
       id="path1329" />
  </g>
  <g
     style="fill:#fefefe;fill-opacity:1;stroke:none"
     id="g1327-6"
     transform="matrix(1.7470777,0,0,1.7471252,-216.65253,-222.73058)" />
  <path
     style="fill:#ffffff;fill-opacity:1;fill-rule:evenodd;stroke:none"
     d="M 292.5625 39.988281 A 56.357442 56.358974 0 0 0 286.88867 40.003906 A 56.357442 56.358974 0 0 0 241.08203 68.121094 L 26.300781 440.04102 A 56.357442 56.358974 0 0 0 75.054688 524.55859 L 504.83594 524.88672 A 56.357442 56.358974 0 0 0 553.69922 440.36914 L 338.69922 68.121094 A 56.357442 56.358974 0 0 0 292.5625 39.988281 z M 292.61914 86.429688 C 300.81981 86.487697 310.19531 104.59766 310.19531 104.59766 L 508.01953 447.27344 C 508.01953 447.27344 515.45324 462.76703 511.22852 470.35742 C 507.00381 477.94781 494.8418 478.38086 494.8418 478.38086 L 94.367188 477.96484 C 94.367188 477.96484 79.072058 478.13893 74.867188 471.02344 C 70.662318 463.90795 75.541016 450.18359 75.541016 450.18359 L 275.74219 103.39062 C 275.74219 103.39062 284.41847 86.371675 292.61914 86.429688 z "
     id="path2990" />
  <path
     style="fill:#ffffff;fill-opacity:1;stroke:none"
     d="m 273.08148,215.46444 c -10.60288,-2.44184 -17.29615,0.90298 -21.14364,5.73645 l -20.35434,25.35607 c -5.59351,-0.69667 -16.46388,2.21405 -18.70696,11.95406 l -8.35556,36.28147 13.41645,3.08977 -2.67215,11.60304 c -3.28752,14.2751 21.95294,19.9109 25.20176,5.80388 l 2.67217,-11.60299 45.33378,10.44027 0.0141,0.003 45.33378,10.44027 -2.67217,11.60302 c -3.2488,14.10699 21.91411,20.07901 25.20178,5.80393 l 2.67214,-11.60305 13.41643,3.08979 8.35554,-36.28147 c 2.24311,-9.74 -6.25901,-17.11222 -11.59392,-18.93228 l -7.22797,-31.70823 c -1.34581,-6.02945 -5.90177,-11.96494 -16.50475,-14.4068 l -19.48538,-4.48744 -33.18113,-7.64155 -19.72056,-4.54163 z m -2.5544,10.35244 36.32582,8.36574 0.0294,0.007 0.0141,0.003 36.34046,8.36914 c 4.53608,1.08034 5.95758,3.80644 6.52956,7.2594 l 5.21858,24.84472 -54.51805,-12.55537 -0.0141,-0.003 -0.0294,-0.007 -54.50338,-12.55203 15.55991,-20.05948 c 2.02472,-2.85494 4.49489,-4.68475 9.04707,-3.67213 z"
     id="path2301"
     inkscape:connector-curvature="0"
     sodipodi:nodetypes="cccsccssccccssccsccsccccccccccccccccc" />
  <path
     style="fill:#ffffff;fill-opacity:1;stroke:none"
     d="m 201.7626,455.40473 63.78354,0 c 0,0 15.18528,-28.34869 -6.60658,-48.49832 -19.70056,-18.21594 -35.69212,-24.35752 -40.06043,-34.41941 -7.45067,-17.16175 6.85171,-31.25575 6.85171,-31.25575 0,0 -28.25636,9.26112 -30.40934,19.69841 -3.63797,17.63632 5.93058,22.23807 34.00857,54.14489 18.40134,20.9106 -27.56747,40.33018 -27.56747,40.33018 z"
     id="path3767"
     inkscape:connector-curvature="0"
     sodipodi:nodetypes="ccsscssc" />
  <path
     style="fill:#ffffff;fill-opacity:1;stroke:none"
     d="m 327.57814,455.25828 63.78354,0 c 0,0 2.18985,-12.10441 -19.60201,-32.25403 -19.70056,-18.21595 -38.24468,-25.37854 -42.61298,-35.44044 -7.45067,-17.16174 9.40426,-30.23472 9.40426,-30.23472 0,0 -30.04314,6.19807 -34.49339,25.31399 -4.08308,17.53864 3.97426,19.99588 33.75329,46.61489 17.4199,15.57138 -10.23271,26.00031 -10.23271,26.00031 z"
     id="path3767-2"
     inkscape:connector-curvature="0"
     sodipodi:nodetypes="ccsscssc" />
</svg>

<svg width="580" height="580" viewBox="0 0 580 580" fill="none" xmlns="http://www.w3.org/2000/svg">
<g clip-path="url(#clip0)">
<path d="M66.2751 1.76815C24.9401 1.76815 1.7041 23.1391 1.7041 66.8041V516.927C1.7041 557.771 22.5981 579.156 63.8961 579.156H515.92C557.227 579.156 578.149 558.84 578.149 516.927V66.8041C578.149 24.2031 557.227 1.76815 514.627 1.76815C514.624 1.76815 66.1331 1.62515 66.2751 1.76815Z" fill="#111111" stroke="#EEEEEE" stroke-width="3.408"/>
<path fill-rule="evenodd" clip-rule="evenodd" d="M292.562 39.9882C290.672 39.8981 288.778 39.9033 286.889 40.0038C277.516 40.5052 268.417 43.3397 260.418 48.2499C252.418 53.1601 245.772 59.9905 241.082 68.121L26.3006 440.041C21.3617 448.604 18.7619 458.316 18.7622 468.201C18.7625 478.087 21.3629 487.798 26.3024 496.361C31.2419 504.924 38.3468 512.037 46.9039 516.986C55.461 521.936 65.1693 524.547 75.0545 524.558L504.836 524.887C514.73 524.894 524.453 522.297 533.025 517.356C541.597 512.414 548.718 505.303 553.67 496.737C558.622 488.171 561.232 478.452 561.237 468.557C561.243 458.662 558.643 448.94 553.699 440.369L338.699 68.121C333.981 59.9422 327.284 53.0799 319.222 48.1643C311.161 43.2486 301.994 40.4372 292.562 39.9882V39.9882ZM292.619 86.4296C300.82 86.4876 310.195 104.598 310.195 104.598L508.019 447.273C508.019 447.273 515.453 462.767 511.228 470.357C507.004 477.948 494.842 478.381 494.842 478.381L94.3671 477.965C94.3671 477.965 79.0719 478.139 74.867 471.023C70.6622 463.908 75.5409 450.183 75.5409 450.183L275.742 103.391C275.742 103.391 284.418 86.3716 292.619 86.4296Z" fill="white"/>
<path d="M273.081 215.464C262.479 213.022 255.785 216.367 251.938 221.201L231.584 246.557C225.99 245.86 215.12 248.771 212.877 258.511L204.521 294.792L217.937 297.882L215.265 309.485C211.978 323.76 237.218 329.396 240.467 315.289L243.139 303.686L288.473 314.126L288.487 314.129L333.821 324.57L331.149 336.173C327.9 350.28 353.063 356.252 356.351 341.977L359.023 330.374L372.439 333.463L380.795 297.182C383.038 287.442 374.536 280.07 369.201 278.25L361.973 246.541C360.627 240.512 356.071 234.576 345.468 232.135L325.983 227.647L292.801 220.006L273.081 215.464L273.081 215.464ZM270.527 225.817L306.853 234.183L306.882 234.19L306.896 234.193L343.237 242.562C347.773 243.642 349.194 246.368 349.766 249.821L354.985 274.666L300.467 262.11L300.453 262.107L300.423 262.1L245.92 249.548L261.48 229.489C263.505 226.634 265.975 224.804 270.527 225.817L270.527 225.817Z" fill="white"/>
<path d="M201.762 455.405H265.546C265.546 455.405 280.731 427.056 258.939 406.907C239.239 388.691 223.247 382.549 218.879 372.487C211.428 355.325 225.731 341.231 225.731 341.231C225.731 341.231 197.474 350.493 195.321 360.93C191.683 378.566 201.252 383.168 229.33 415.075C247.731 435.985 201.762 455.405 201.762 455.405V455.405Z" fill="white"/>
<path d="M327.578 455.258H391.362C391.362 455.258 393.552 443.154 371.76 423.004C352.059 404.788 333.515 397.626 329.147 387.564C321.696 370.402 338.551 357.329 338.551 357.329C338.551 357.329 308.508 363.527 304.058 382.643C299.975 400.182 308.032 402.639 337.811 429.258C355.231 444.829 327.578 455.258 327.578 455.258V455.258Z" fill="white"/>
</g>
<defs>
<clipPath id="clip0">
<path d="M0 0H580V580H0V0Z" fill="white"/>
</clipPath>
</defs>
</svg>
